static/images/clients/svg/eon-white.svg

<svg fill="none" height="139" viewBox="0 0 474 139" width="474" xmlns="http://www.w3.org/2000/svg"><path clip-rule="evenodd" d="m323.608 51.351c0 15.3684-9.576 35.5599-16.497 48.9-10.87 20.992-25.576 33.57-49.488 35.054-21.136 1.311-68.905 4.98-60.536-30.636 3.629-15.4181 11.693-29.0025 16.644-43.8916 16.636-33.1925 58.501-39.5199 91.761-31.2249 11.258 4.0958 17.25 9.5771 18.116 21.7983zm-55.823 1.4731c-17.095 0-19.177 23.8635-22.387 36.6747-.806 4.8417-6.227 21.0622 2.504 21.0622 20.554 4.134 22.466-18.411 25.923-33.4345 1.271-5.527 3.791-14.7999 2.651-20.473 0-4.2196-5.884-3.5474-8.691-3.8293zm-117.682 1.0312c-2.109 40.4162-30.496 37.271-64.218 37.1165-12.8154-.0529-25.921-.8836-38.5896-.8836-4.6748 4.7415 8.8596 19.1228 12.6671 21.5038 12.9971 8.097 29.305 4.62 39.7679-5.892 5.6206 0 65.9546-7.8859 45.0706 12.962-10.108 8.994-24.41 14.306-37.412 17.38-41.372 9.784-130.7396-14-100.5977-72.3189 20.6048-33.9122 65.2337-52.456 102.0707-62.00775 3.43-.68609 6.818-1.214194 10.31-1.473052 26.209-1.956898 30.931 34.214202 30.931 53.613102zm-38.442-3.2406c0-3.6554.149-7.5207-1.032-11.0466-4.045-16.2975-46.4885 18.5046-51.5502 23.5662-.6354 1.2797-.1552.8832.7363 1.3257 14.086 0 28.2048-.1476 42.2719-.1476 9.263-1.5289 9.574-4.3484 9.574-13.6978zm81.745 20.7676c-3.194 6.4317-2.481 14.869-8.985 19.7363-8.896 6.6559-31.304 6.674-26.365-9.426 4.676-15.3058 13.516-21.8155 29.605-17.8219 3.925 1.3143 4.852 3.914 5.745 7.5116zm280.141-19.884c0 4.1203-.864 8.3683-1.767 12.3724-5.317 23.5007-13.89 45.8593-21.505 68.4893-6.986 6.986-21.509 3.182-29.016-1.326-3.754-3.755 5.579-22.913 7.07-27.543 2.288-7.1109 14.785-33.3326 4.272-38.5889-3.382 0-6.072.4426-9.426 1.3255-31.463 11.0147-53.794 43.0414-76.443 65.6904-9.817 4.943-16.867 3.678-26.512-1.178-.957-.957-.493-2.478-.295-3.683 7.299-30.4834 18.842-60.7069 31.373-89.4036 1.971-5.8591 22.228-3.6881 27.248-1.1781 0 6.4893-.681 17.3802 8.69 17.3802 21.023-2.3172 72.536-47.95171 85.574-8.8374.37 2.2086.737 4.2105.737 6.4804z" fill="#fff" fill-rule="evenodd"/></svg>

<svg width="474" height="139" viewBox="0 0 474 139" fill="none" xmlns="http://www.w3.org/2000/svg">
<path fill-rule="evenodd" clip-rule="evenodd" d="M323.608 51.351C323.608 66.7194 314.032 86.9109 307.111 100.251C296.241 121.243 281.535 133.821 257.623 135.305C236.487 136.616 188.718 140.285 197.087 104.669C200.716 89.2509 208.78 75.6665 213.731 60.7774C230.367 27.5849 272.232 21.2575 305.492 29.5525C316.75 33.6483 322.742 39.1296 323.608 51.3508L323.608 51.351ZM267.785 52.8241C250.69 52.8241 248.608 76.6876 245.398 89.4988C244.592 94.3405 239.171 110.561 247.902 110.561C268.456 114.695 270.368 92.15 273.825 77.1265C275.096 71.5995 277.616 62.3266 276.476 56.6535C276.476 52.4339 270.592 53.1061 267.785 52.8242V52.8241ZM150.103 53.8553C147.994 94.2715 119.607 91.1263 85.885 90.9718C73.0696 90.9189 59.964 90.0882 47.2954 90.0882C42.6206 94.8297 56.155 109.211 59.9625 111.592C72.9596 119.689 89.2675 116.212 99.7304 105.7C105.351 105.7 165.685 97.8141 144.801 118.662C134.693 127.656 120.391 132.968 107.389 136.042C66.017 145.826 -23.3506 122.042 6.7913 63.7231C27.3961 29.8109 72.025 11.2671 108.862 1.71535C112.292 1.02926 115.68 0.501156 119.172 0.242298C145.381 -1.7146 150.103 34.4565 150.103 53.8554L150.103 53.8553ZM111.661 50.6147C111.661 46.9593 111.81 43.094 110.629 39.5681C106.584 23.2706 64.1405 58.0727 59.0788 63.1343C58.4434 64.414 58.9236 64.0175 59.8151 64.46C73.9011 64.46 88.0199 64.3124 102.087 64.3124C111.35 62.7835 111.661 59.964 111.661 50.6146V50.6147ZM193.406 71.3823C190.212 77.814 190.925 86.2513 184.421 91.1186C175.525 97.7745 153.117 97.7926 158.056 81.6926C162.732 66.3868 171.572 59.8771 187.661 63.8707C191.586 65.185 192.513 67.7847 193.406 71.3823L193.406 71.3823ZM473.547 51.4983C473.547 55.6186 472.683 59.8666 471.78 63.8707C466.463 87.3714 457.89 109.73 450.275 132.36C443.289 139.346 428.766 135.542 421.259 131.034C417.505 127.279 426.838 108.121 428.329 103.491C430.617 96.3801 443.114 70.1584 432.601 64.9021C429.219 64.9021 426.529 65.3447 423.175 66.2276C391.712 77.2423 369.381 109.269 346.732 131.918C336.915 136.861 329.865 135.596 320.22 130.74C319.263 129.783 319.727 128.262 319.925 127.057C327.224 96.5736 338.767 66.3501 351.298 37.6534C353.269 31.7943 373.526 33.9653 378.546 36.4753C378.546 42.9646 377.865 53.8555 387.236 53.8555C408.259 51.5383 459.772 5.90379 472.81 45.0181C473.18 47.2267 473.547 49.2286 473.547 51.4985L473.547 51.4983Z" fill="white"/>
</svg>
